img/BMS_white.svg

<svg xmlns="http://www.w3.org/2000/svg" width="115" height="33.9" fill="none" viewBox="0 0 115 33">
  <g clip-path="url(#a)">
    <path fill="#D71920" d="m72.4622 9.6674-1.8893-3.22731-3.3862 1.61365-1.8893-3.22731-3.3862 1.61366-1.8893-3.22731-3.3862 1.61365-1.8893-3.22731-3.3862 1.61366L49.4709 0l-3.3862 1.61366-7.1648 23.31804 8.7053 2.6604c.5813-1.8754 2.3398-3.2564 4.4035-3.2564 2.5433 0 4.607 2.0643 4.607 4.6084v.0872c.0145.4216-.0291.8431-.1599 1.2502l8.8507 2.704 7.1357-23.3181Z"/>
    <path fill="#FFF" d="M46.3747 22.9982c-.4505-.0873-.7702-.4652-.7702-.9304V10.6559c0-.5379.4215-.94496.9446-.94496h8.2403c.218 0 .436.01453.6394.05815 1.7731.31981 3.0665 1.84621 3.0665 3.64891v8.6643c0 .2617-.1017.4943-.2906.6833-.1744.1744-.4215.2762-.6686.2762-.0581 0-.1162 0-.1744-.0146-.4505-.0872-.7702-.4652-.7702-.9304v-8.6934c0-.8722-.6249-1.6136-1.4969-1.7735-.1018-.0146-.2035-.0291-.3052-.0291h-1.8021v10.467c0 .2616-.1017.4942-.2907.6832-.1744.1745-.4214.2762-.6685.2762-.0581 0-.1163 0-.1744-.0145-.4505-.0872-.7702-.4652-.7702-.9304v-10.467h-3.6042v10.467c0 .2617-.1018.4943-.2907.6833-.1744.1744-.4215.2762-.6685.2762-.0291-.0291-.0872-.0291-.1454-.0436ZM60.0945 27.9846c-.4506-.0726-.7703-.4652-.7703-.9304 0-.2616.1017-.4942.2761-.6687.1744-.1744.4215-.2762.6831-.2762.7993 0 1.4969-.5233 1.7294-1.2793l.9737-3.2709-3.2118-10.7141c-.1598-.5088.1308-1.0467.6395-1.19208.1453-.04361.2761-.04361.4215-.01453.3487.05815.6394.30528.7557.63961l2.3834 7.9956 2.4125-7.9956c.1162-.45063.5958-.74138 1.1045-.65415l.0727.01454c.5086.15991.7993.69781.6394 1.20661l-3.299 11.0048-1.0464 3.5181c-.2616.8141-.7266 1.4683-1.337 1.9044-.654.4797-1.4243.7414-2.2236.7414-.0872-.0145-.1453-.0291-.2034-.0291ZM.799318 22.882C.319727 22.7948 0 22.4023 0 21.908V4.87014c0-.27621.101731-.52335.290661-.6978.18893-.18899.435991-.29075.697586-.29075.058133 0 .116263 0 .174393.01454.47959.08722.81385.49427.81385.97401V9.7111h1.87477c.21799 0 .45052.01454.66852.05815 1.84569.31985 3.18273 1.91895 3.18273 3.79425v5.4952c0 2.1224-1.72943 3.8524-3.85125 3.8524H.988247c-.058132-.0145-.130797-.0145-.188929-.0291Zm1.177172-1.9625h1.87477c1.03184 0 1.87476-.8432 1.87476-1.8754v-5.4806c0-.9158-.65399-1.6863-1.55504-1.8462-.10173-.0146-.21799-.0291-.31972-.0291H1.97649v9.2313ZM13.3996 22.9545c-1.8311-.3198-3.1682-1.9189-3.1682-3.7943V13.447c0-1.0321.3924-1.9916 1.1191-2.7185.7266-.7269 1.6858-1.11937 2.7177-1.11937.218 0 .4505.01454.6685.05815 1.8457.31982 3.1827 1.91892 3.1827 3.79432v5.7132c0 1.0321-.4069 1.9916-1.1336 2.7185-.7266.7268-1.6858 1.1194-2.7176 1.1194-.218 0-.4506-.0146-.6686-.0582Zm.9883-11.3537c-.1017-.0146-.218-.0291-.3197-.0291-1.0464 0-1.8748.8286-1.8748 1.8753v5.7132c0 .9159.6395 1.6864 1.5405 1.8463.1017.0145.218.0291.3343.0291 1.0318 0 1.8747-.8432 1.8747-1.8754V13.447c0-.9158-.654-1.6863-1.555-1.8462ZM23.6164 22.9546c-1.8311-.3198-3.1682-1.9189-3.1682-3.7942v-5.7132c0-2.1225 1.7295-3.85247 3.8513-3.85247.218 0 .4505.01453.6685.05815 1.8457.31982 3.1828 1.91892 3.1828 3.79432v5.7132c0 1.0321-.407 1.9916-1.1336 2.7185-.7267.7268-1.6859 1.1194-2.7177 1.1194-.2325.0145-.4651 0-.6831-.0437Zm1.0028-11.3537c-.1017-.0145-.218-.0291-.3197-.0291-1.0464 0-1.8748.8287-1.8748 1.8754v5.7132c0 .9158.6395 1.6863 1.5405 1.8462.1018.0146.218.0291.3343.0291.4941 0 .9592-.189 1.3225-.5379.3633-.3489.5523-.8286.5523-1.3229v-5.7277c0-.9159-.654-1.6864-1.5551-1.8463ZM31.479 22.9983c-.4796-.0872-.7993-.4797-.7993-.974V4.87014c0-.27621.1017-.52335.2906-.6978.189-.18899.436-.29075.6976-.29075.0582 0 .1163 0 .1744.01454.4796.08722.8139.49427.8139.97401V15.0318l4.5488-5.08809c.2326-.24714.5668-.36344.9156-.30529.1889.02908.3488.1163.4941.2326.407.37798.436.98858.0727 1.39558L35.2576 15.09l3.5606 6.4982c.1308.2181.1599.4797.0872.7269-.0727.2471-.2471.4652-.4796.5815-.1889.1163-.4215.1454-.654.1163-.2906-.0582-.5522-.2181-.683-.4652l-3.1973-5.8731-1.2208 1.3374v4.0414c0 .2617-.1017.5234-.2906.7123-.189.189-.436.2763-.6976.2763-.0872-.0291-.1454-.0291-.2035-.0437ZM75.0491 22.9836c-1.1045-.189-2.0056-.8286-2.5724-1.8027-.1308-.218-.1599-.4942-.0872-.7559.0727-.2617.2325-.4652.4505-.596.189-.1163.436-.1454.6686-.1163.2906.0581.5522.218.683.4797.2616.4361.6685.7269 1.1772.8141.5522.0872 1.0464-.0582 1.4678-.4216.3779-.3489.5813-.8577.5232-1.352-.0291-.5233-.2761-.974-.7121-1.2793l-2.6596-1.8898c-.8719-.6106-1.4242-1.5846-1.5114-2.6749-.0581-1.1049.3633-2.1516 1.1627-2.8494.7847-.72683 1.8602-1.06119 2.9356-.91582 1.1191.20353 2.0347.82862 2.5578 1.75902.1308.2181.1599.4943.0872.7414-.0726.2617-.2325.4798-.4505.5961-.1889.1163-.436.1453-.654.1163-.2906-.0582-.5522-.2181-.683-.4798-.218-.3925-.6395-.6687-1.1191-.7559-.5086-.0873-.9737.0581-1.337.3925-.3343.3198-.5232.785-.4941 1.2647.029.4652.2906.9159.683 1.1921l2.6596 1.8608c.9156.6542 1.4823 1.6718 1.5405 2.7912.0872 1.1194-.3488 2.1806-1.1917 2.9366-.7993.7559-1.9039 1.0903-3.0229.9449h-.1017ZM82.6928 23.0127c-.4796-.0872-.8139-.4942-.8139-.974V4.88454c0-.26167.1017-.52335.2907-.71233.1889-.17445.436-.27621.6976-.27621.0581 0 .1307 0 .1889.01453.4796.08723.7993.47974.7993.97401v4.84097h1.8748c.2325 0 .4505.01454.683.05815 1.8312.31984 3.1682 1.91894 3.1682 3.79424v8.4608c0 .5525-.436.9886-.9882.9886-.0582 0-.1163 0-.1744-.0146-.4796-.0872-.8139-.4942-.8139-.974v-8.4608c0-.9158-.6394-1.6863-1.5405-1.8462-.1017-.0146-.218-.0291-.3342-.0291h-1.8748v10.3361c0 .5525-.436.9886-.9882.9886-.0582 0-.1163 0-.1744-.0146ZM95.2639 22.969c-1.8312-.3198-3.1682-1.9189-3.1682-3.7942v-5.7132c0-2.1225 1.7294-3.85247 3.8512-3.85247.218 0 .4506.01454.6686.05815 1.8457.31982 3.1827 1.91892 3.1827 3.79432v5.7277c0 1.0322-.4069 1.9916-1.1336 2.7185-.7266.7269-1.6858 1.1194-2.7177 1.1194-.2325 0-.465-.0145-.683-.0582Zm1.0028-11.3537c-.1018-.0145-.218-.0291-.3198-.0291-.5086 0-.9737.189-1.3225.5524-.3488.3489-.5522.8287-.5522 1.323v5.7277c0 .9159.6394 1.6864 1.5405 1.8463.1163.0145.218.029.3342.029.4942 0 .9592-.1889 1.3225-.5378.3634-.3489.5523-.8287.5523-1.323v-5.7422c-.0145-.9159-.6685-1.6864-1.555-1.8463ZM114.971 10.8303c.058-.2471.029-.5088-.102-.7268-.131-.21809-.363-.378-.64-.45069-.058-.01454-.116-.01454-.174-.01454-.451 0-.843.30529-.959.74143-.015.0436-1.076 4.3321-1.904 7.5885l-.015.0727-.014-.0727c-.814-3.2564-1.889-7.5449-1.904-7.5885-.087-.378-.378-.66874-.756-.72689-.058-.01454-.116-.01454-.174-.01454-.436 0-.814.30529-.945.74143-.014.0436-1.075 4.3321-1.904 7.5885l-.014.0727-.015-.0727c-.813-3.2564-1.889-7.5449-1.903-7.5885-.088-.378-.393-.6542-.771-.72689-.13-.02907-.261-.01454-.392.01454-.523.13084-.843.65415-.712 1.16295l2.863 11.441c.102.378.407.6542.77.7269.044.0145.102.0145.16.0145.465 0 .843-.2907.93-.7414.015-.0436 1.09-4.3321 1.904-7.6031l.014-.0727.015.0727c.843 3.2855 1.904 7.6031 1.904 7.6031.116.378.407.6542.77.7269.058.0145.102.0145.16.0145.465 0 .843-.3053.93-.7414l2.878-11.441Z"/>
  </g>
  <defs>
    <clipPath id="a">
      <path fill="#fff" d="M0 0h115v33H0z"/>
    </clipPath>
  </defs>
</svg>

<svg xmlns:xlink="http://www.w3.org/1999/xlink" width="115" height="33.9" viewBox="0 0 115 33" fill="none" xmlns="http://www.w3.org/2000/svg"><g clip-path="url(#clip0_6398_17562)" fill="none"><path d="M72.4622 9.6674L70.5729 6.44009L67.1867 8.05374L65.2974 4.82643L61.9112 6.44009L60.0219 3.21278L56.6357 4.82643L54.7464 1.59912L51.3602 3.21278L49.4709 0L46.0847 1.61366L38.9199 24.9317L47.6252 27.5921C48.2065 25.7167 49.965 24.3357 52.0287 24.3357C54.572 24.3357 56.6357 26.4 56.6357 28.9441C56.6357 28.9731 56.6357 29.0022 56.6357 29.0313C56.6502 29.4529 56.6066 29.8744 56.4758 30.2815L65.3265 32.9855L72.4622 9.6674Z" fill="#D71920"></path><path d="M46.3747 22.9982C45.9242 22.9109 45.6045 22.533 45.6045 22.0678V10.6559C45.6045 10.118 46.026 9.71094 46.5491 9.71094H54.7894C55.0074 9.71094 55.2254 9.72547 55.4288 9.76909C57.2019 10.0889 58.4953 11.6153 58.4953 13.418V22.0823C58.4953 22.344 58.3936 22.5766 58.2047 22.7656C58.0303 22.94 57.7832 23.0418 57.5361 23.0418C57.478 23.0418 57.4199 23.0418 57.3617 23.0272C56.9112 22.94 56.5915 22.562 56.5915 22.0968V13.4034C56.5915 12.5312 55.9666 11.7898 55.0946 11.6299C54.9928 11.6153 54.8911 11.6008 54.7894 11.6008H52.9873V22.0678C52.9873 22.3294 52.8856 22.562 52.6966 22.751C52.5222 22.9255 52.2752 23.0272 52.0281 23.0272C51.97 23.0272 51.9118 23.0272 51.8537 23.0127C51.4032 22.9255 51.0835 22.5475 51.0835 22.0823V11.6153H47.4793V22.0823C47.4793 22.344 47.3775 22.5766 47.1886 22.7656C47.0142 22.94 46.7671 23.0418 46.5201 23.0418C46.491 23.0127 46.4329 23.0127 46.3747 22.9982Z" fill="#FFFFFF"></path><path d="M60.0945 27.9846C59.6439 27.912 59.3242 27.5194 59.3242 27.0542C59.3242 26.7926 59.4259 26.56 59.6003 26.3855C59.7747 26.2111 60.0218 26.1093 60.2834 26.1093C61.0827 26.1093 61.7803 25.586 62.0128 24.83L62.9865 21.5591L59.7747 10.845C59.6149 10.3362 59.9055 9.7983 60.4142 9.65292C60.5595 9.60931 60.6903 9.60931 60.8357 9.63839C61.1844 9.69654 61.4751 9.94367 61.5914 10.278L63.9748 18.2736L66.3873 10.278C66.5035 9.82737 66.9831 9.53662 67.4918 9.62385L67.5645 9.63839C68.0731 9.7983 68.3638 10.3362 68.2039 10.845L64.9049 21.8498L63.8585 25.3679C63.5969 26.182 63.1319 26.8362 62.5215 27.2723C61.8675 27.752 61.0972 28.0137 60.2979 28.0137C60.2107 27.9992 60.1526 27.9846 60.0945 27.9846Z" fill="#FFFFFF"></path><path d="M0.799318 22.882C0.319727 22.7948 0 22.4023 0 21.908V4.87014C0 4.59393 0.101731 4.34679 0.290661 4.17234C0.479591 3.98335 0.726652 3.88159 0.988247 3.88159C1.04638 3.88159 1.10451 3.88159 1.16264 3.89613C1.64223 3.98335 1.97649 4.3904 1.97649 4.87014V9.7111H3.85126C4.06925 9.7111 4.30178 9.72564 4.51978 9.76925C6.36547 10.0891 7.70251 11.6882 7.70251 13.5635V19.0587C7.70251 21.1811 5.97308 22.9111 3.85126 22.9111H0.988247C0.930115 22.8966 0.85745 22.8966 0.799318 22.882ZM1.97649 20.9195H3.85126C4.8831 20.9195 5.72602 20.0763 5.72602 19.0441V13.5635C5.72602 12.6477 5.07203 11.8772 4.17098 11.7173C4.06925 11.7027 3.95299 11.6882 3.85126 11.6882H1.97649V20.9195Z" fill="#FFF"></path><path d="M13.3996 22.9545C11.5685 22.6347 10.2314 21.0356 10.2314 19.1602V13.447C10.2314 12.4149 10.6238 11.4554 11.3505 10.7285C12.0771 10.0016 13.0363 9.60913 14.0682 9.60913C14.2862 9.60913 14.5187 9.62367 14.7367 9.66728C16.5824 9.9871 17.9194 11.5862 17.9194 13.4616V19.1748C17.9194 20.2069 17.5125 21.1664 16.7858 21.8933C16.0592 22.6201 15.1 23.0127 14.0682 23.0127C13.8502 23.0127 13.6176 22.9981 13.3996 22.9545ZM14.3879 11.6008C14.2862 11.5862 14.1699 11.5717 14.0682 11.5717C13.0218 11.5717 12.1934 12.4003 12.1934 13.447V19.1602C12.1934 20.0761 12.8329 20.8466 13.7339 21.0065C13.8356 21.021 13.9519 21.0356 14.0682 21.0356C15.1 21.0356 15.9429 20.1924 15.9429 19.1602V13.447C15.9429 12.5312 15.2889 11.7607 14.3879 11.6008Z" fill="#FFF"></path><path d="M23.6164 22.9546C21.7853 22.6348 20.4482 21.0357 20.4482 19.1604V13.4472C20.4482 11.3247 22.1777 9.59473 24.2995 9.59473C24.5175 9.59473 24.75 9.60926 24.968 9.65288C26.8137 9.9727 28.1508 11.5718 28.1508 13.4472V19.1604C28.1508 20.1925 27.7438 21.152 27.0172 21.8789C26.2905 22.6057 25.3313 22.9983 24.2995 22.9983C24.067 23.0128 23.8344 22.9983 23.6164 22.9546ZM24.6192 11.6009C24.5175 11.5864 24.4012 11.5718 24.2995 11.5718C23.2531 11.5718 22.4247 12.4005 22.4247 13.4472V19.1604C22.4247 20.0762 23.0642 20.8467 23.9652 21.0066C24.067 21.0212 24.1832 21.0357 24.2995 21.0357C24.7936 21.0357 25.2587 20.8467 25.622 20.4978C25.9853 20.1489 26.1743 19.6692 26.1743 19.1749V13.4472C26.1743 12.5313 25.5203 11.7608 24.6192 11.6009Z" fill="#FFF"></path><path d="M31.479 22.9983C30.9994 22.9111 30.6797 22.5186 30.6797 22.0243V4.87014C30.6797 4.59393 30.7814 4.34679 30.9703 4.17234C31.1593 3.98335 31.4063 3.88159 31.6679 3.88159C31.7261 3.88159 31.7842 3.88159 31.8423 3.89613C32.3219 3.98335 32.6562 4.3904 32.6562 4.87014V15.0318L37.205 9.94371C37.4376 9.69657 37.7718 9.58027 38.1206 9.63842C38.3095 9.6675 38.4694 9.75472 38.6147 9.87102C39.0217 10.249 39.0507 10.8596 38.6874 11.2666L35.2576 15.09L38.8182 21.5882C38.949 21.8063 38.9781 22.0679 38.9054 22.3151C38.8327 22.5622 38.6583 22.7803 38.4258 22.8966C38.2369 23.0129 38.0043 23.042 37.7718 23.0129C37.4812 22.9547 37.2196 22.7948 37.0888 22.5477L33.8915 16.6746L32.6707 18.012V22.0534C32.6707 22.3151 32.569 22.5768 32.3801 22.7657C32.1911 22.9547 31.9441 23.042 31.6825 23.042C31.5953 23.0129 31.5371 23.0129 31.479 22.9983Z" fill="#FFF"></path><path d="M75.0491 22.9836C73.9446 22.7946 73.0435 22.155 72.4767 21.1809C72.3459 20.9629 72.3168 20.6867 72.3895 20.425C72.4622 20.1633 72.622 19.9598 72.84 19.829C73.029 19.7127 73.276 19.6836 73.5086 19.7127C73.7992 19.7708 74.0608 19.9307 74.1916 20.1924C74.4532 20.6285 74.8601 20.9193 75.3688 21.0065C75.921 21.0937 76.4152 20.9483 76.8366 20.5849C77.2145 20.236 77.4179 19.7272 77.3598 19.2329C77.3307 18.7096 77.0837 18.2589 76.6477 17.9536L73.9881 16.0638C73.1162 15.4532 72.5639 14.4792 72.4767 13.3889C72.4186 12.284 72.84 11.2373 73.6394 10.5395C74.4241 9.81267 75.4996 9.47831 76.575 9.62368C77.6941 9.82721 78.6097 10.4523 79.1328 11.3827C79.2636 11.6008 79.2927 11.877 79.22 12.1241C79.1474 12.3858 78.9875 12.6039 78.7695 12.7202C78.5806 12.8365 78.3335 12.8655 78.1155 12.8365C77.8249 12.7783 77.5633 12.6184 77.4325 12.3567C77.2145 11.9642 76.793 11.688 76.3134 11.6008C75.8048 11.5135 75.3397 11.6589 74.9764 11.9933C74.6421 12.3131 74.4532 12.7783 74.4823 13.258C74.5113 13.7232 74.7729 14.1739 75.1653 14.4501L77.8249 16.3109C78.7405 16.9651 79.3072 17.9827 79.3654 19.1021C79.4526 20.2215 79.0166 21.2827 78.1737 22.0387C77.3744 22.7946 76.2698 23.129 75.1508 22.9836H75.0491Z" fill="#FFF"></path><path d="M82.6928 23.0127C82.2132 22.9255 81.8789 22.5185 81.8789 22.0387V4.88454C81.8789 4.62287 81.9806 4.36119 82.1696 4.17221C82.3585 3.99776 82.6056 3.896 82.8672 3.896C82.9253 3.896 82.9979 3.896 83.0561 3.91053C83.5357 3.99776 83.8554 4.39027 83.8554 4.88454V9.72551H85.7302C85.9627 9.72551 86.1807 9.74005 86.4132 9.78366C88.2444 10.1035 89.5814 11.7026 89.5814 13.5779V22.0387C89.5814 22.5912 89.1454 23.0273 88.5932 23.0273C88.535 23.0273 88.4769 23.0273 88.4188 23.0127C87.9392 22.9255 87.6049 22.5185 87.6049 22.0387V13.5779C87.6049 12.6621 86.9655 11.8916 86.0644 11.7317C85.9627 11.7171 85.8464 11.7026 85.7302 11.7026H83.8554V22.0387C83.8554 22.5912 83.4194 23.0273 82.8672 23.0273C82.809 23.0273 82.7509 23.0273 82.6928 23.0127Z" fill="#FFF"></path><path d="M95.2639 22.969C93.4327 22.6492 92.0957 21.0501 92.0957 19.1748V13.4616C92.0957 11.3391 93.8251 9.60913 95.9469 9.60913C96.1649 9.60913 96.3975 9.62367 96.6155 9.66728C98.4612 9.9871 99.7982 11.5862 99.7982 13.4616V19.1893C99.7982 20.2215 99.3913 21.1809 98.6646 21.9078C97.938 22.6347 96.9788 23.0272 95.9469 23.0272C95.7144 23.0272 95.4819 23.0127 95.2639 22.969ZM96.2667 11.6153C96.1649 11.6008 96.0487 11.5862 95.9469 11.5862C95.4383 11.5862 94.9732 11.7752 94.6244 12.1386C94.2756 12.4875 94.0722 12.9673 94.0722 13.4616V19.1893C94.0722 20.1052 94.7116 20.8757 95.6127 21.0356C95.729 21.0501 95.8307 21.0646 95.9469 21.0646C96.4411 21.0646 96.9061 20.8757 97.2694 20.5268C97.6328 20.1779 97.8217 19.6981 97.8217 19.2038V13.4616C97.8072 12.5457 97.1532 11.7752 96.2667 11.6153Z" fill="#FFF"></path><path d="M114.971 10.8303C115.029 10.5832 115 10.3215 114.869 10.1035C114.738 9.88541 114.506 9.7255 114.229 9.65281C114.171 9.63827 114.113 9.63827 114.055 9.63827C113.604 9.63827 113.212 9.94356 113.096 10.3797C113.081 10.4233 112.02 14.7118 111.192 17.9682L111.177 18.0409L111.163 17.9682C110.349 14.7118 109.274 10.4233 109.259 10.3797C109.172 10.0017 108.881 9.71096 108.503 9.65281C108.445 9.63827 108.387 9.63827 108.329 9.63827C107.893 9.63827 107.515 9.94356 107.384 10.3797C107.37 10.4233 106.309 14.7118 105.48 17.9682L105.466 18.0409L105.451 17.9682C104.638 14.7118 103.562 10.4233 103.548 10.3797C103.46 10.0017 103.155 9.7255 102.777 9.65281C102.647 9.62374 102.516 9.63827 102.385 9.66735C101.862 9.79819 101.542 10.3215 101.673 10.8303L104.536 22.2713C104.638 22.6493 104.943 22.9255 105.306 22.9982C105.35 23.0127 105.408 23.0127 105.466 23.0127C105.931 23.0127 106.309 22.722 106.396 22.2713C106.411 22.2277 107.486 17.9392 108.3 14.6682L108.314 14.5955L108.329 14.6682C109.172 17.9537 110.233 22.2713 110.233 22.2713C110.349 22.6493 110.64 22.9255 111.003 22.9982C111.061 23.0127 111.105 23.0127 111.163 23.0127C111.628 23.0127 112.006 22.7074 112.093 22.2713L114.971 10.8303Z" fill="#FFF"></path></g><defs><clipPath id="clip0_6398_17562"><rect width="115" height="33" fill="white"></rect></clipPath></defs></svg>
